img/logo-symbol-22.svg

<svg fill="none" height="56" viewBox="0 0 48 56" width="48" xmlns="http://www.w3.org/2000/svg" xmlns:xlink="http://www.w3.org/1999/xlink"><clipPath id="a"><path d="m0 .270142h47.6631v55h-47.6631z"/></clipPath><g clip-path="url(#a)"><path d="m23.806.270142 23.8059 13.744358v27.4888l-23.8059 13.7441-23.806-13.7441v-27.4888z" fill="#fff"/><g fill="#000"><path d="m39.958 41.5109 3.8532-2.2278v-16.4744l-3.8532 2.2278z"/><path d="m37.107 43.1586-3.8004 2.1973v-16.4744l3.8004-2.1973z"/><path d="m26.6562 49.2011v-16.4744l3.8004-2.1973v16.4745z"/><path clip-rule="evenodd" d="m23.806.270142 23.8059 13.744358v27.4888l-23.8059 13.7441-23.806-13.7441v-27.4888zm-.0001 1.108448 22.8557 13.19581h-11.0019l-11.8538 13.1957-22.855799-13.1957zm-22.855804 16.46831.000005 23.119 22.855799 13.1958 22.8557-13.1958v-23.119l-22.8557 13.1958z" fill-rule="evenodd"/></g></g></svg>

<svg width="48" height="56" viewBox="0 0 48 56" fill="none" xmlns="http://www.w3.org/2000/svg">
<g clip-path="url(#clip0_3482_26752)">
<path d="M23.806 0.270142L47.6119 14.0145V41.5033L23.806 55.2474L0 41.5033V14.0145L23.806 0.270142Z" fill="white"/>
<path d="M39.958 41.5109L43.8112 39.2831V22.8087L39.958 25.0365V41.5109Z" fill="black"/>
<path d="M37.107 43.1586L33.3066 45.3559V28.8815L37.107 26.6842V43.1586Z" fill="black"/>
<path d="M26.6562 49.2011V32.7267L30.4566 30.5294V47.0039L26.6562 49.2011Z" fill="black"/>
<path fill-rule="evenodd" clip-rule="evenodd" d="M23.806 0.270142L47.6119 14.0145V41.5033L23.806 55.2474L0 41.5033V14.0145L23.806 0.270142ZM23.8059 1.37859L46.6616 14.5744H35.6597L23.8059 27.7701L0.950101 14.5744L23.8059 1.37859ZM0.950096 17.8469L0.950101 40.9659L23.8059 54.1617L46.6616 40.9659V17.8469L23.8059 31.0427L0.950096 17.8469Z" fill="black"/>
</g>
<defs>
<clipPath id="clip0_3482_26752">
<rect width="47.6631" height="55" fill="white" transform="translate(0 0.270142)"/>
</clipPath>
</defs>
</svg>
